angular-fe/src/assets/img/homepage-topical-1.svg

<?xml version="1.0" encoding="UTF-8"?>
<svg viewBox="0 0 363 479" xmlns="http://www.w3.org/2000/svg">
<path d="m181.3 476.7c73.785 0 133.6-3.224 133.6-7.2s-59.814-7.2-133.6-7.2-133.6 3.224-133.6 7.2 59.815 7.2 133.6 7.2z" fill="#D9EDEF"/>
<path d="m286.9 180.1v-34.3h-211.2v34.3c-20.05 0-39.28 7.965-53.457 22.143-14.178 14.178-22.143 33.407-22.143 53.457 0 20.051 7.965 39.28 22.143 53.457 14.178 14.178 33.407 22.143 53.457 22.143 3.6475-0.014 7.2896-0.281 10.9-0.8 7.5264 14.964 18.492 27.932 31.998 37.84s29.168 16.474 45.702 19.16v53.5h-29.5c-3.625-1e-3 -7.215 0.712-10.564 2.098-3.349 1.387-6.392 3.42-8.955 5.983-2.564 2.563-4.597 5.606-5.983 8.955-1.387 3.35-2.1 6.939-2.098 10.564h148c1e-3 -3.625-0.712-7.214-2.099-10.564-1.386-3.349-3.419-6.392-5.982-8.955s-5.607-4.596-8.956-5.983c-3.349-1.386-6.939-2.099-10.563-2.098h-29.5v-53.4c16.547-2.686 32.219-9.264 45.728-19.191 13.508-9.927 24.466-22.919 31.972-37.909 3.711 0.519 7.453 0.786 11.2 0.8 9.928-7e-3 19.757-1.968 28.927-5.774 9.169-3.805 17.5-9.379 24.515-16.404 7.016-7.025 12.579-15.363 16.372-24.537 3.793-9.175 5.742-19.007 5.736-28.935-7e-3 -9.928-1.969-19.757-5.774-28.927-3.806-9.17-9.38-17.5-16.404-24.515-7.025-7.016-15.363-12.579-24.538-16.372-9.174-3.793-19.006-5.742-28.934-5.736zm-211.2 128.3c-13.977 0-27.381-5.552-37.264-15.435-9.8831-9.884-15.436-23.288-15.436-37.265s5.5524-27.381 15.436-37.264c9.8832-9.884 23.288-15.436 37.264-15.436v71.7c-0.2 2.8-0.4 5.5-0.4 8.3 0.0245 8.488 1.0311 16.944 3 25.2-0.8621 0.117-1.7302 0.183-2.6 0.2zm211.2 0c-1 0-2 0-3-0.1 2.017-8.247 3.025-16.709 3-25.2v-80c13.963 0 27.355 5.547 37.229 15.421s15.421 23.265 15.421 37.229-5.547 27.355-15.421 37.229-23.266 15.421-37.229 15.421z" fill="#EEF8F9"/>
<path d="m109.1 213.1c-0.011-23.56 6.014-46.73 17.5-67.3h-51v34.3c-20.05 0-39.28 7.965-53.457 22.143-14.178 14.178-22.143 33.407-22.143 53.457 0 20.051 7.965 39.28 22.143 53.457 14.178 14.178 33.407 22.143 53.457 22.143 3.6474-0.014 7.2896-0.281 10.9-0.8 7.5264 14.964 18.492 27.932 31.998 37.84s29.168 16.474 45.702 19.16v53.5h-29.5c-3.625-1e-3 -7.214 0.712-10.564 2.098-3.349 1.387-6.392 3.42-8.955 5.983s-4.596 5.606-5.983 8.955c-1.386 3.35-2.099 6.939-2.098 10.564h148c1e-3 -3.625-0.712-7.214-2.098-10.564-1.387-3.349-3.42-6.392-5.983-8.955s-5.606-4.596-8.955-5.983c-3.35-1.386-6.939-2.099-10.564-2.098h-29.5v-53.4c25.568-4.15 48.729-17.527 65.1-37.6-5.379 0.604-10.787 0.905-16.2 0.9-36.546-3e-3 -71.594-14.522-97.436-40.364s-40.361-60.89-40.364-97.436zm-33.4 95.3c-13.977 0-27.381-5.552-37.264-15.435-9.8832-9.884-15.436-23.288-15.436-37.265s5.5523-27.381 15.436-37.264c9.8832-9.884 23.288-15.436 37.264-15.436v71.7c-0.2 2.8-0.4 5.5-0.4 8.3 0.0244 8.488 1.0311 16.944 3 25.2-0.8621 0.117-1.7302 0.183-2.6 0.2z" fill="#15ADC2"/>
<path d="m278.3 139.7 0.7 6.8c1.1 0 13-0.5 13.1-1.2s-9.1-2.1-9.1-2.1c0.061-1.101 0.028-2.205-0.1-3.3-0.1-0.3-4.6-0.2-4.6-0.2z" fill="#2E3374" stroke="#2E3374" stroke-miterlimit="10" stroke-width="1.7"/>
<path d="m254.2 196.3-1.4 6.7c1 0.4 12.5 3.4 12.9 2.8s-8.1-4.7-8.1-4.7c0.399-1.002 0.701-2.04 0.9-3.1 0-0.5-4.3-1.7-4.3-1.7z" fill="#2E3374" stroke="#2E3374" stroke-miterlimit="10" stroke-width="1.7"/>
<path d="m233 112.1s17.6-34.3 37.9-31.9 14.3 60.2 14.3 60.2h-8s-1.7-42.4-8.7-42.3-30.1 32.5-30.1 32.5 30.2-2.6 34.2 18c4.9 25-12.3 50.8-12.3 50.8l-9.7-0.4s18.6-43.7 8.1-50.1c-16.1-9.8-47.1 7.8-59.4-15.3l33.7-21.5z" fill="#fff" stroke="#2E3374" stroke-miterlimit="10" stroke-width="1.7"/>
<path d="m210.4 66.2s22 8.2 33.2 3.5 23.9-28 31.1-28.3 7.5-2.8 7.5-2.8-0.6 6.3999-5.2 6.6999-10.2 26.9-28.2 34.1-36.7 1.3999-36.7 1.3999-4.2-11.6-1.7-14.6z" fill="#fff" stroke="#2E3374" stroke-miterlimit="10" stroke-width="1.7"/>
<path d="m203.7 33.4c0.2-0.5 6.7-10.5 17.3-4 4.4 2.8 4.5 8 10 9.3s13.4-3.9001 16.2 5.0999-0.4 11.5 4.5 12.5 8.6 0.4001 7.4 7.4001c-1.7 10-17 10.3-18.9 4.5999-4.8-14.4-12.9 2.6-17-10.2-2-6.3-29.4 3.7001-19.5-24.7z" fill="#fff" stroke="#2E3374" stroke-miterlimit="10" stroke-width="1.7"/>
<path d="m220.2 65.3s9.6 5.7 11.1 5.7 0 10 0 10-13.5-6.6-11.1-15.7z" fill="#D5401A" stroke="#2E3374" stroke-miterlimit="10" stroke-width="1.7"/>
<path d="m220.2 65.3s-38-14-20.8 68.3c0 0 39.5-12.6 33.6-21.5-4.1-6.2-5.7-2-6.5-12-0.8-9.9998 21.7-11.3-6.3-34.8z" fill="#D5401A" stroke="#2E3374" stroke-miterlimit="10" stroke-width="1.7"/>
<path d="m220.6 44.2c-1.1-0.2-2.3 0.8999-3 1.8999-0.5-2.9-0.8-5.7-1-8-0.3-3.9-11.4-4.6001-13.7 3.3999 0 0-2.8 12.6 4 14.5 2.6 0.7 4 0.1002 4.8-0.7998l-1.5 9.5s3.5 4.3998 10 0.5998c0.6-0.4-0.6-7.3999-1.8-14.9 0.463 0.204 0.982 0.2459 1.472 0.1189s0.922-0.4155 1.228-0.8188c0.9-1.4 1.5-5.1-0.5-5.5z" fill="#fff" stroke="#2E3374" stroke-miterlimit="10" stroke-width="1.7"/>
<path d="m214.5 80s20.9 10.7 32.6 7.3 27-25.1 34.1-24.5 7.7-2 7.7-2-1.3 6.3-6 6-13.2 25.6-31.9 30.6c-18.7 4.9999-36.6-2.8-36.6-2.8s-2.8-11.9 0.1-14.6z" fill="#fff" stroke="#2E3374" stroke-miterlimit="10" stroke-width="1.7"/>
<path d="m211.6 76.3s12.7 4.9 13.6 6.7-1.4 16.9-4.8 16-14.9-2.8998-15.1-10.3 2-14.2 6.3-12.4z" fill="#D5401A" stroke="#2E3374" stroke-miterlimit="10" stroke-width="1.5"/>
<path d="m282.2 64.4c6.369 0 12.594-1.8885 17.889-5.4267 5.296-3.5382 9.423-8.5672 11.86-14.451 2.437-5.8838 3.075-12.358 1.832-18.604-1.242-6.2462-4.309-11.984-8.812-16.487s-10.241-7.5698-16.487-8.8123-12.721-0.60487-18.604 1.8323c-5.884 2.4371-10.913 6.5644-14.451 11.86-3.539 5.2953-5.427 11.521-5.427 17.889-3e-3 4.2293 0.828 8.4176 2.446 12.325 1.617 3.9079 3.989 7.4587 6.979 10.449 2.991 2.9905 6.542 5.3622 10.45 6.9794 3.907 1.6173 8.096 2.4485 12.325 2.4458z" fill="#FD8208"/>
<path d="m272.3 32.2v1.3999h9.2v-1.3999h-9.2z" fill="#fff"/>
<path d="m282.9 32.2v1.3999h9.2v-1.3999h-9.2z" fill="#fff"/>
<path d="m314.3 33.6v-1.3999h-20.8v1.3999h20.8z" fill="#fff"/>
<path d="m250 32.2v1.3999h20.9v-1.3999h-20.9z" fill="#fff"/>
<path d="m282.9 0h-1.4v64.4h1.4v-64.4z" fill="#fff"/>
<path d="m293.5 34v-1.7998c0.4-10.1 3.9-19.1 9.1-24.8-0.4-0.3-0.7-0.60015-1.1-0.90015-5.5 6-9.1 15.2-9.5 25.7v1.7998c0 9.9 2.9 18.9 7.7 25.2 0.4-0.3 0.8-0.5001 1.2-0.8001-4.6-6.1-7.4-14.8-7.4-24.4z" fill="#fff"/>
<path d="m262.8 6.5c-0.4 0.3-0.7 0.60015-1.1 0.90015 5.3 5.7 8.8 14.7 9.1 24.8v1.7998c0 9.6-2.8 18.3-7.4 24.4 0.4 0.3 0.8 0.5001 1.2 0.8001 4.7-6.3 7.7-15.3 7.7-25.2v-1.7998c-0.4-10.5-4-19.7-9.5-25.7z" fill="#fff"/>
<path d="m47.202 471-0.1001 6.8c-1.1 0.1-13 0.7-13.2 0s8.9-2.9 8.9-2.9c-0.1791-1.09-0.2462-2.196-0.2001-3.3 0.1-0.3 4.6001-0.6 4.6001-0.6z" fill="#2E3374" stroke="#2E3374" stroke-miterlimit="10" stroke-width="1.7"/>
<path d="m64.101 471-0.3 6.8c-1.1 0.1-13 0.3-13.2-0.4s8.9-2.6 8.9-2.6c-0.1403-1.094-0.1738-2.199-0.0999-3.3 0.2-0.3 4.6999-0.5 4.6999-0.5z" fill="#2E3374" stroke="#2E3374" stroke-miterlimit="10" stroke-width="1.7"/>
<path d="m72.2 386.7s8.5-60.7 0-69.3c-13.2-13.5-36.3-3.4-37.2-1.8-3.8 6.3-4.1 69.6-4.1 69.6l41.3 1.5z" fill="#fff" stroke="#2E3374" stroke-miterlimit="10" stroke-width="1.7"/>
<path d="m30.801 385.2s-19.8 25.4-16.5 38.2 25.8 49.4 25.8 49.4h9.6s-20.5-45.3-18.9-50 20.7-23.5 20.7-23.5 1.1 50.2 7 73.5h6.7s7.1-56.2 7-88.6l-41.4 1z" fill="#F8B243" stroke="#2E3374" stroke-miterlimit="10" stroke-width="1.7"/>
<path d="m56.902 289.1c-0.7-0.1-1.1 0.3-1.5 0.9-0.3-2.4-0.5001-4.7-0.7001-6.6-0.3-3.9-10.1 0-12.6 4.6 0 0-3.9 11.3 2.9 13.3 2.8 0.8 4.2001 0 4.9001-1-0.5 4.3-1.2001 11.5-1.2001 11.5s3 2.6 9.5-1.2c0 0-1.1-7.4-2.2-15 0.4809 0.276 1.0424 0.377 1.5893 0.286s1.0454-0.369 1.4107-0.786c1.2-1.6-0.1999-5.6-2.0999-6z" fill="#fff" stroke="#2E3374" stroke-miterlimit="10" stroke-width="1.7"/>
<path d="m76.3 386.7s-5.9-4.2 1.8-12.4c6.5-6.9 22.3-23.9 16.8-30.2s-18.7-11.1-18.7-11.1l-2.7-17.6s29.1 11.3 35 27.5c5.6 15.3-26.4 33.5-29.1 35.8-3.5 3-3.1 8-3.1 8z" fill="#fff" stroke="#2E3374" stroke-miterlimit="10" stroke-width="1.7"/>
<path d="m34.9 315.5s-30.8 9.7-32.2 31.3 28.2 29.6 26.3 33.2c-1.6 3-6.5 3.9-5.1 3.7s9.3 2.8 7-7.4-24.5-17.7-14.5-31c5.3-7.1 16-10.9 16-10.9s1.1-14.2 2.5-18.9z" fill="#fff" stroke="#2E3374" stroke-miterlimit="10" stroke-width="1.7"/>
<path d="m97.001 328.7c-0.6-0.4-14.4-12.4-29.3-15.8-1.1865-0.298-2.3883-0.532-3.6-0.7l-1.3 110.8h10.9s2.2-58.3 2.5-87.8l12.6 4.6c0.1-0.2 8.8-10.7 8.2-11.1z" fill="#fff" stroke="#2E3374" stroke-miterlimit="10" stroke-width="1.7"/>
<path d="m42.7 312.1c-1.1566 0.101-2.2976 0.336-3.4001 0.7-18.7 5.9-28.4 17-28.7 17.3s10.8 12 10.8 12c2.7-2.5 7.1-4.6 10.5-6-1.4 20-1.2 45.5-1.2 45.5s-10 15.7-15.5 27.7l6.3999 4.9s19-27 18.5-30.2 2.6001-71.9 2.6001-71.9z" fill="#fff" stroke="#2E3374" stroke-miterlimit="10" stroke-width="1.7"/>
<path d="m62.802 288.9c-0.3-3.3-3.8-1.6-2.8-3.9s-1.2001-7.5-5.9001-5c0 0-1.4999-5.3-4.7999-4.1s-2.8001 3-5.2001 2-4.8 2.7-3.5 5.1c1.7 3.1 1.6001 4.1 6.1001 3s6.8999-2.6 7.8999-0.8c0.8 1.4-0.0999 4.6 0.1001 6.2l-0.3 0.2c0.3 5-6.7 7.4-9.2 5.6-0.6762-0.512-1.5015-0.79-2.3501-0.79-0.8485 0-1.6737 0.278-2.3499 0.79-1.1 0.6 0.2 7.7 7.2 6.8 5.7-0.7 7.9-9.3 8.5-12.4 0.4-0.8 0.6-1.8 1.2-1 1 1.3 2.6 4.8-0.1 4.4s-0.7001 3.2 0.2999 3.1 5.7001-4 5.2001-9.2z" fill="#2E3374" stroke="#2E3374" stroke-miterlimit="10" stroke-width="1.7"/>
</svg>

<svg width="363" height="479" viewBox="0 0 363 479" fill="none" xmlns="http://www.w3.org/2000/svg">
<path d="M181.299 476.7C255.084 476.7 314.898 473.476 314.898 469.5C314.898 465.524 255.084 462.3 181.299 462.3C107.514 462.3 47.6992 465.524 47.6992 469.5C47.6992 473.476 107.514 476.7 181.299 476.7Z" fill="#D9EDEF"/>
<path d="M286.9 180.1V145.8H75.6996V180.1C55.6493 180.1 36.4201 188.065 22.2424 202.243C8.06462 216.421 0.0996094 235.65 0.0996094 255.7C0.0996094 275.751 8.06462 294.98 22.2424 309.157C36.4201 323.335 55.6493 331.3 75.6996 331.3C79.3471 331.286 82.9892 331.019 86.5996 330.5C94.126 345.464 105.092 358.432 118.598 368.34C132.104 378.248 147.766 384.814 164.3 387.5V441H134.8C131.175 440.999 127.585 441.712 124.236 443.098C120.887 444.485 117.844 446.518 115.281 449.081C112.717 451.644 110.684 454.687 109.298 458.036C107.911 461.386 107.198 464.975 107.2 468.6H255.2C255.201 464.975 254.488 461.386 253.101 458.036C251.715 454.687 249.682 451.644 247.119 449.081C244.556 446.518 241.512 444.485 238.163 443.098C234.814 441.712 231.224 440.999 227.6 441H198.1V387.6C214.647 384.914 230.319 378.336 243.828 368.409C257.336 358.482 268.294 345.49 275.8 330.5C279.511 331.019 283.253 331.286 287 331.3C296.928 331.293 306.757 329.332 315.927 325.526C325.096 321.721 333.427 316.147 340.442 309.122C347.458 302.097 353.021 293.759 356.814 284.585C360.607 275.41 362.556 265.578 362.55 255.65C362.543 245.722 360.581 235.893 356.776 226.723C352.97 217.553 347.396 209.223 340.372 202.208C333.347 195.192 325.009 189.629 315.834 185.836C306.66 182.043 296.828 180.094 286.9 180.1ZM75.6996 308.4C61.7227 308.4 48.3183 302.848 38.4351 292.965C28.552 283.081 22.9996 269.677 22.9996 255.7C22.9996 241.723 28.552 228.319 38.4351 218.436C48.3183 208.552 61.7227 203 75.6996 203V274.7C75.4996 277.5 75.2996 280.2 75.2996 283C75.3241 291.488 76.3307 299.944 78.2996 308.2C77.4375 308.317 76.5694 308.383 75.6996 308.4ZM286.9 308.4C285.9 308.4 284.9 308.4 283.9 308.3C285.917 300.053 286.925 291.591 286.9 283.1V203.1C300.863 203.1 314.255 208.647 324.129 218.521C334.003 228.395 339.55 241.786 339.55 255.75C339.55 269.714 334.003 283.105 324.129 292.979C314.255 302.853 300.863 308.4 286.9 308.4Z" fill="#EEF8F9"/>
<path d="M109.1 213.1C109.089 189.54 115.114 166.37 126.6 145.8H75.6V180.1C55.5496 180.1 36.3204 188.065 22.1427 202.243C7.96495 216.421 0 235.65 0 255.7C0 275.751 7.96495 294.98 22.1427 309.157C36.3204 323.335 55.5496 331.3 75.6 331.3C79.2474 331.286 82.8896 331.019 86.5 330.5C94.0264 345.464 104.992 358.432 118.498 368.34C132.004 378.248 147.666 384.814 164.2 387.5V441H134.7C131.075 440.999 127.486 441.712 124.136 443.098C120.787 444.485 117.744 446.518 115.181 449.081C112.618 451.644 110.585 454.687 109.198 458.036C107.812 461.386 107.099 464.975 107.1 468.6H255.1C255.101 464.975 254.388 461.386 253.002 458.036C251.615 454.687 249.582 451.644 247.019 449.081C244.456 446.518 241.413 444.485 238.064 443.098C234.714 441.712 231.125 440.999 227.5 441H198V387.6C223.568 383.45 246.729 370.073 263.1 350C257.721 350.604 252.313 350.905 246.9 350.9C210.354 350.897 175.306 336.378 149.464 310.536C123.622 284.694 109.103 249.646 109.1 213.1ZM75.7 308.4C61.7231 308.4 48.3187 302.848 38.4355 292.965C28.5523 283.081 23 269.677 23 255.7C23 241.723 28.5523 228.319 38.4355 218.436C48.3187 208.552 61.7231 203 75.7 203V274.7C75.5 277.5 75.3 280.2 75.3 283C75.3244 291.488 76.3311 299.944 78.3 308.2C77.4379 308.317 76.5698 308.383 75.7 308.4Z" fill="#15ADC2"/>
<path d="M278.301 139.7L279.001 146.5C280.101 146.5 292.001 146 292.101 145.3C292.201 144.6 283.001 143.2 283.001 143.2C283.062 142.099 283.029 140.995 282.901 139.9C282.801 139.6 278.301 139.7 278.301 139.7Z" fill="#2E3374" stroke="#2E3374" stroke-width="1.7" stroke-miterlimit="10"/>
<path d="M254.201 196.3L252.801 203C253.801 203.4 265.301 206.4 265.701 205.8C266.101 205.2 257.601 201.1 257.601 201.1C258 200.098 258.302 199.06 258.501 198C258.501 197.5 254.201 196.3 254.201 196.3Z" fill="#2E3374" stroke="#2E3374" stroke-width="1.7" stroke-miterlimit="10"/>
<path d="M233.001 112.1C233.001 112.1 250.601 77.8002 270.901 80.2002C291.201 82.6002 285.201 140.4 285.201 140.4H277.201C277.201 140.4 275.501 98.0001 268.501 98.1001C261.501 98.2001 238.401 130.6 238.401 130.6C238.401 130.6 268.601 128 272.601 148.6C277.501 173.6 260.301 199.4 260.301 199.4L250.601 199C250.601 199 269.201 155.3 258.701 148.9C242.601 139.1 211.601 156.7 199.301 133.6L233.001 112.1Z" fill="white" stroke="#2E3374" stroke-width="1.7" stroke-miterlimit="10"/>
<path d="M210.4 66.2002C210.4 66.2002 232.4 74.4002 243.6 69.7002C254.8 65.0002 267.5 41.7001 274.7 41.4001C281.9 41.1001 282.2 38.6001 282.2 38.6001C282.2 38.6001 281.6 45 277 45.3C272.4 45.6 266.8 72.2001 248.8 79.4001C230.8 86.6001 212.1 80.8 212.1 80.8C212.1 80.8 207.9 69.2002 210.4 66.2002Z" fill="white" stroke="#2E3374" stroke-width="1.7" stroke-miterlimit="10"/>
<path d="M203.7 33.4001C203.9 32.9001 210.4 22.9001 221 29.4001C225.4 32.2001 225.5 37.4001 231 38.7001C236.5 40.0001 244.4 34.8 247.2 43.8C250 52.8 246.8 55.3 251.7 56.3C256.6 57.3 260.3 56.7001 259.1 63.7001C257.4 73.7001 242.1 74 240.2 68.3C235.4 53.9 227.3 70.9 223.2 58.1C221.2 51.8 193.8 61.8001 203.7 33.4001Z" fill="white" stroke="#2E3374" stroke-width="1.7" stroke-miterlimit="10"/>
<path d="M220.2 65.3C220.2 65.3 229.8 71 231.3 71C232.8 71 231.3 81 231.3 81C231.3 81 217.8 74.4 220.2 65.3Z" fill="#D5401A" stroke="#2E3374" stroke-width="1.7" stroke-miterlimit="10"/>
<path d="M220.2 65.3001C220.2 65.3001 182.2 51.3002 199.4 133.6C199.4 133.6 238.9 121 233 112.1C228.9 105.9 227.3 110.1 226.5 100.1C225.7 90.1002 248.2 88.8001 220.2 65.3001Z" fill="#D5401A" stroke="#2E3374" stroke-width="1.7" stroke-miterlimit="10"/>
<path d="M220.599 44.2002C219.499 44.0002 218.299 45.1001 217.599 46.1001C217.099 43.2001 216.799 40.4001 216.599 38.1001C216.299 34.2001 205.199 33.5 202.899 41.5C202.899 41.5 200.099 54.1 206.899 56C209.499 56.7 210.899 56.1002 211.699 55.2002L210.199 64.7002C210.199 64.7002 213.699 69.1 220.199 65.3C220.799 64.9 219.599 57.9001 218.399 50.4001C218.862 50.6041 219.381 50.646 219.871 50.519C220.361 50.392 220.793 50.1035 221.099 49.7002C221.999 48.3002 222.599 44.6002 220.599 44.2002Z" fill="white" stroke="#2E3374" stroke-width="1.7" stroke-miterlimit="10"/>
<path d="M214.499 80C214.499 80 235.399 90.7 247.099 87.3C258.799 83.9 274.099 62.2 281.199 62.8C288.299 63.4 288.899 60.8 288.899 60.8C288.899 60.8 287.599 67.1 282.899 66.8C278.199 66.5 269.699 92.4001 250.999 97.4001C232.299 102.4 214.399 94.6001 214.399 94.6001C214.399 94.6001 211.599 82.7 214.499 80Z" fill="white" stroke="#2E3374" stroke-width="1.7" stroke-miterlimit="10"/>
<path d="M211.6 76.3C211.6 76.3 224.3 81.2 225.2 83C226.1 84.8 223.8 99.9 220.4 99C217 98.1 205.5 96.1002 205.3 88.7002C205.1 81.3002 207.3 74.5 211.6 76.3Z" fill="#D5401A" stroke="#2E3374" stroke-width="1.5" stroke-miterlimit="10"/>
<path d="M282.2 64.4002C288.569 64.4002 294.794 62.5117 300.089 58.9735C305.385 55.4353 309.512 50.4063 311.949 44.5226C314.386 38.6388 315.024 32.1645 313.781 25.9183C312.539 19.6721 309.472 13.9345 304.969 9.43125C300.466 4.928 294.728 1.86144 288.482 0.618996C282.236 -0.623448 275.761 0.0141294 269.878 2.45127C263.994 4.88841 258.965 9.01563 255.427 14.3109C251.888 19.6062 250 25.8317 250 32.2003C249.997 36.4296 250.828 40.6179 252.446 44.5257C254.063 48.4336 256.435 51.9844 259.425 54.975C262.416 57.9655 265.967 60.3372 269.875 61.9544C273.782 63.5717 277.971 64.4029 282.2 64.4002Z" fill="#FD8208"/>
<path d="M272.301 32.2002V33.6001H281.501V32.2002H272.301Z" fill="white"/>
<path d="M282.898 32.2002V33.6001H292.098V32.2002H282.898Z" fill="white"/>
<path d="M314.3 33.6001V32.2002H293.5V33.6001H314.3Z" fill="white"/>
<path d="M250 32.2002V33.6001H270.9V32.2002H250Z" fill="white"/>
<path d="M282.9 0H281.5V64.4001H282.9V0Z" fill="white"/>
<path d="M293.5 34V32.2002C293.9 22.1002 297.4 13.1001 302.6 7.40015C302.2 7.10015 301.9 6.8 301.5 6.5C296 12.5 292.4 21.7002 292 32.2002V34C292 43.9 294.9 52.9002 299.7 59.2002C300.1 58.9002 300.5 58.7001 300.9 58.4001C296.3 52.3001 293.5 43.6 293.5 34Z" fill="white"/>
<path d="M262.799 6.5C262.399 6.8 262.099 7.10015 261.699 7.40015C266.999 13.1001 270.499 22.1002 270.799 32.2002V34C270.799 43.6 267.999 52.3001 263.399 58.4001C263.799 58.7001 264.199 58.9002 264.599 59.2002C269.299 52.9002 272.299 43.9 272.299 34V32.2002C271.899 21.7002 268.299 12.5 262.799 6.5Z" fill="white"/>
<path d="M47.2017 471L47.1016 477.8C46.0016 477.9 34.1017 478.5 33.9017 477.8C33.7017 477.1 42.8017 474.9 42.8017 474.9C42.6226 473.81 42.5555 472.704 42.6016 471.6C42.7016 471.3 47.2017 471 47.2017 471Z" fill="#2E3374" stroke="#2E3374" stroke-width="1.7" stroke-miterlimit="10"/>
<path d="M64.1009 471L63.8009 477.8C62.7009 477.9 50.8009 478.1 50.6009 477.4C50.4009 476.7 59.5009 474.8 59.5009 474.8C59.3606 473.706 59.3271 472.601 59.401 471.5C59.601 471.2 64.1009 471 64.1009 471Z" fill="#2E3374" stroke="#2E3374" stroke-width="1.7" stroke-miterlimit="10"/>
<path d="M72.2004 386.7C72.2004 386.7 80.7004 326 72.2004 317.4C59.0004 303.9 35.9004 314 35.0004 315.6C31.2004 321.9 30.9004 385.2 30.9004 385.2L72.2004 386.7Z" fill="white" stroke="#2E3374" stroke-width="1.7" stroke-miterlimit="10"/>
<path d="M30.8007 385.2C30.8007 385.2 11.0007 410.6 14.3007 423.4C17.6007 436.2 40.1007 472.8 40.1007 472.8H49.7007C49.7007 472.8 29.2007 427.5 30.8007 422.8C32.4007 418.1 51.5007 399.3 51.5007 399.3C51.5007 399.3 52.6007 449.5 58.5007 472.8H65.2007C65.2007 472.8 72.3007 416.6 72.2007 384.2L30.8007 385.2Z" fill="#F8B243" stroke="#2E3374" stroke-width="1.7" stroke-miterlimit="10"/>
<path d="M56.9015 289.1C56.2015 289 55.8015 289.4 55.4015 290C55.1015 287.6 54.9014 285.3 54.7014 283.4C54.4014 279.5 44.6014 283.4 42.1014 288C42.1014 288 38.2014 299.3 45.0014 301.3C47.8014 302.1 49.2015 301.3 49.9015 300.3C49.4015 304.6 48.7014 311.8 48.7014 311.8C48.7014 311.8 51.7014 314.4 58.2014 310.6C58.2014 310.6 57.1014 303.2 56.0014 295.6C56.4823 295.876 57.0438 295.977 57.5907 295.886C58.1376 295.795 58.6361 295.517 59.0014 295.1C60.2014 293.5 58.8015 289.5 56.9015 289.1Z" fill="white" stroke="#2E3374" stroke-width="1.7" stroke-miterlimit="10"/>
<path d="M76.3 386.7C76.3 386.7 70.4 382.5 78.1 374.3C84.6 367.4 100.4 350.4 94.9 344.1C89.4 337.8 76.2 333 76.2 333L73.5 315.4C73.5 315.4 102.6 326.7 108.5 342.9C114.1 358.2 82.1 376.4 79.4 378.7C75.9 381.7 76.3 386.7 76.3 386.7Z" fill="white" stroke="#2E3374" stroke-width="1.7" stroke-miterlimit="10"/>
<path d="M34.9005 315.5C34.9005 315.5 4.10051 325.2 2.70051 346.8C1.30051 368.4 30.9005 376.4 29.0005 380C27.4005 383 22.5005 383.9 23.9005 383.7C25.3005 383.5 33.2005 386.5 30.9005 376.3C28.6005 366.1 6.40052 358.6 16.4005 345.3C21.7005 338.2 32.4005 334.4 32.4005 334.4C32.4005 334.4 33.5005 320.2 34.9005 315.5Z" fill="white" stroke="#2E3374" stroke-width="1.7" stroke-miterlimit="10"/>
<path d="M97.0008 328.7C96.4008 328.3 82.6008 316.3 67.7008 312.9C66.5143 312.602 65.3125 312.368 64.1008 312.2L62.8008 423H73.7008C73.7008 423 75.9008 364.7 76.2008 335.2L88.8008 339.8C88.9008 339.6 97.6008 329.1 97.0008 328.7Z" fill="white" stroke="#2E3374" stroke-width="1.7" stroke-miterlimit="10"/>
<path d="M42.6998 312.1C41.5432 312.201 40.4022 312.436 39.2997 312.8C20.5997 318.7 10.8997 329.8 10.5997 330.1C10.2997 330.4 21.3998 342.1 21.3998 342.1C24.0998 339.6 28.4998 337.5 31.8998 336.1C30.4998 356.1 30.6998 381.6 30.6998 381.6C30.6998 381.6 20.6998 397.3 15.1998 409.3L21.5997 414.2C21.5997 414.2 40.5997 387.2 40.0997 384C39.5997 380.8 42.6998 312.1 42.6998 312.1Z" fill="white" stroke="#2E3374" stroke-width="1.7" stroke-miterlimit="10"/>
<path d="M62.8019 288.9C62.5019 285.6 59.0019 287.3 60.0019 285C61.0019 282.7 58.8018 277.5 54.1018 280C54.1018 280 52.6019 274.7 49.3019 275.9C46.0019 277.1 46.5018 278.9 44.1018 277.9C41.7018 276.9 39.3018 280.6 40.6018 283C42.3018 286.1 42.2019 287.1 46.7019 286C51.2019 284.9 53.6018 283.4 54.6018 285.2C55.4018 286.6 54.5019 289.8 54.7019 291.4L54.4019 291.6C54.7019 296.6 47.7019 299 45.2019 297.2C44.5257 296.688 43.7004 296.41 42.8518 296.41C42.0033 296.41 41.1781 296.688 40.5019 297.2C39.4019 297.8 40.7019 304.9 47.7019 304C53.4019 303.3 55.6019 294.7 56.2019 291.6C56.6019 290.8 56.8019 289.8 57.4019 290.6C58.4019 291.9 60.0019 295.4 57.3019 295C54.6019 294.6 56.6018 298.2 57.6018 298.1C58.6018 298 63.3019 294.1 62.8019 288.9Z" fill="#2E3374" stroke="#2E3374" stroke-width="1.7" stroke-miterlimit="10"/>
</svg>
